assets/icons/24px/stroke/arrow-circle-backward-five-24px.svg

<svg width="24" height="24" viewBox="0 0 24 24" fill="none" xmlns="http://www.w3.org/2000/svg">
<path fill-rule="evenodd" clip-rule="evenodd" d="M7.8865 2.30587C7.50314 1.90831 6.87008 1.89679 6.47252 2.28015L3.80587 4.85152C3.61042 5.03999 3.5 5.29984 3.5 5.57136C3.5 5.84288 3.6104 6.10273 3.80585 6.2912L6.4725 8.86271C6.87005 9.24608 7.50311 9.23458 7.88648 8.83703C8.26985 8.43948 8.25835 7.80642 7.8608 7.42305L6.9776 6.57137L11.5 6.57136C15.4354 6.57136 18.5 9.24909 18.5 13.2857C18.5 17.3223 15.4354 20 11.5 20C7.7054 20 5.12222 17.0681 5.12222 13.2857C5.12222 12.7334 4.6745 12.2857 4.12222 12.2857C3.56993 12.2857 3.12222 12.7334 3.12222 13.2857C3.12222 18.0243 6.45805 22 11.5 22C16.4011 22 20.5 18.5607 20.5 13.2857C20.5 8.01062 16.4011 4.57136 11.5 4.57136L6.97771 4.57137L7.86078 3.71985C8.25834 3.33649 8.26985 2.70343 7.8865 2.30587Z" fill="white"/>
<path fill-rule="evenodd" clip-rule="evenodd" d="M10.2648 10.2594C10.3113 10.0255 10.5167 9.85693 10.7552 9.85693H14C14.2761 9.85693 14.5 10.0808 14.5 10.3569C14.5 10.6331 14.2761 10.8569 14 10.8569H11.1656L10.8333 12.5279C11.1626 12.411 11.5554 12.3569 12.125 12.3569C12.7871 12.3569 13.4156 12.4909 13.8694 12.9385C14.3237 13.3866 14.5 14.0471 14.5 14.8569C14.5 15.3099 14.3957 15.6896 14.198 15.9955C14.0006 16.301 13.7325 16.4981 13.4618 16.6233C12.9552 16.8574 12.3945 16.8571 12.143 16.8569C12.1368 16.8569 12.1308 16.8569 12.125 16.8569L12.1115 16.8569C11.8599 16.857 11.3028 16.8571 10.798 16.7126C10.539 16.6385 10.2511 16.5151 10.0221 16.2976C9.77829 16.066 9.625 15.7489 9.625 15.3569C9.625 15.0808 9.84886 14.8569 10.125 14.8569C10.4011 14.8569 10.625 15.0808 10.625 15.3569C10.625 15.465 10.6586 15.5229 10.7108 15.5726C10.7778 15.6362 10.8953 15.7003 11.0731 15.7512C11.4327 15.8541 11.8646 15.8569 12.125 15.8569C12.3883 15.8569 12.7499 15.8507 13.0421 15.7156C13.177 15.6532 13.283 15.569 13.3581 15.4527C13.4331 15.3367 13.5 15.1539 13.5 14.8569C13.5 14.1668 13.3465 13.8273 13.1672 13.6504C12.9873 13.473 12.6783 13.3569 12.125 13.3569C11.5507 13.3569 11.2829 13.4195 11.1003 13.4964C11.005 13.5366 10.9171 13.5872 10.8054 13.6592C10.7736 13.6797 10.7371 13.7038 10.6971 13.7302C10.6082 13.7889 10.5017 13.8592 10.3904 13.927C10.221 14.0303 10.0065 14.0236 9.84385 13.9099C9.68118 13.7962 9.60112 13.5972 9.63982 13.4025L10.2648 10.2594Z" fill="white"/>
</svg>

<svg width="24" height="24" fill="none" xmlns="http://www.w3.org/2000/svg"><path fill-rule="evenodd" clip-rule="evenodd" d="M7.886 2.306a1 1 0 0 0-1.413-.026L3.806 4.852a1 1 0 0 0 0 1.44l2.667 2.57A1 1 0 1 0 7.86 7.424l-.883-.852H11.5c3.935 0 7 2.678 7 6.715 0 4.036-3.065 6.714-7 6.714-3.795 0-6.378-2.932-6.378-6.714a1 1 0 1 0-2 0C3.122 18.024 6.458 22 11.5 22c4.901 0 9-3.44 9-8.714 0-5.275-4.099-8.715-9-8.715H6.978l.883-.851a1 1 0 0 0 .026-1.414z" fill="#fff"/><path fill-rule="evenodd" clip-rule="evenodd" d="M10.265 10.26a.5.5 0 0 1 .49-.403H14a.5.5 0 0 1 0 1h-2.834l-.333 1.67c.33-.116.722-.17 1.292-.17.662 0 1.29.134 1.744.582.455.448.631 1.108.631 1.918 0 .453-.104.833-.302 1.139a1.72 1.72 0 0 1-.736.627c-.507.234-1.067.234-1.319.234h-.032c-.251 0-.808 0-1.313-.144-.259-.075-.547-.198-.776-.415a1.263 1.263 0 0 1-.397-.941.5.5 0 0 1 1 0c0 .108.034.166.086.216a.885.885 0 0 0 .362.178c.36.103.792.106 1.052.106.263 0 .625-.006.917-.141a.722.722 0 0 0 .316-.263c.075-.116.142-.3.142-.596 0-.69-.153-1.03-.333-1.207-.18-.177-.489-.293-1.042-.293-.574 0-.842.063-1.025.14-.095.04-.183.09-.295.162l-.108.071a9.95 9.95 0 0 1-.307.197.5.5 0 0 1-.75-.524l.625-3.144z" fill="#fff"/></svg>
